svg/Filled/moon-sparkles_filled.svg

<svg viewBox="0 0 24 24" xmlns="http://www.w3.org/2000/svg" width="24" height="24"><path d="M14.67 2.73c.7-.59 1.86-.82 2.87-.23A11 11 0 0 1 12 23a11 11 0 0 1-9.6-5.6 2.2 2.2 0 0 1 .42-2.67c.62-.6 1.65-.9 2.65-.51q1.09.41 2.31.42a6.8 6.8 0 0 0 6.69-6.9q-.01-1.35-.46-2.52c-.36-.95 0-1.92.67-2.49"/><path d="M8.78 6.85a.5.5 0 0 1 .46 0l.1.06q.1.12.12.18l.07.18.33.88.88.32.18.07c.03.02.17.08.24.23l.05.11v.24l-.05.11-.06.1c-.07.08-.16.11-.18.12l-.18.08-.88.32-.33.88-.07.18q0 .05-.12.18l-.1.06-.11.05a.5.5 0 0 1-.35-.05c-.15-.07-.2-.2-.23-.24l-.07-.18-.32-.88-.88-.32-.18-.08a.5.5 0 0 1-.25-.22.5.5 0 0 1 0-.46c.08-.15.21-.2.25-.23l.18-.07.88-.32.32-.88.07-.18c.02-.03.08-.17.23-.24m-5.05-5.8a.6.6 0 0 1 .56 0l.06.03a1 1 0 0 1 .2.27l.13.32.45 1.2 1.2.46.32.12c.07.03.23.1.31.27l.03.07a.6.6 0 0 1 0 .42l-.03.07-.03.06a1 1 0 0 1-.28.2q-.13.08-.31.13l-1.2.45-.46 1.2-.12.33a1 1 0 0 1-.21.27l-.06.03-.07.03a.6.6 0 0 1-.5-.03.6.6 0 0 1-.26-.3l-.13-.32-.44-1.2-1.21-.46-.32-.12a.6.6 0 0 1-.3-.27.6.6 0 0 1 0-.56.6.6 0 0 1 .3-.27l.32-.12 1.2-.45.45-1.2.13-.33c.03-.07.1-.22.27-.3"/></svg>

<svg viewBox="0 0 24 24" xmlns="http://www.w3.org/2000/svg" width="24" height="24"><path d="M14.67 2.73c.7-.59 1.86-.82 2.87-.23A11 11 0 0 1 12 23a11 11 0 0 1-9.6-5.6 2.2 2.2 0 0 1 .42-2.67c.62-.6 1.65-.9 2.65-.51q1.09.41 2.31.42a6.8 6.8 0 0 0 6.69-6.9q-.01-1.35-.46-2.52c-.36-.95 0-1.92.67-2.49"/><path d="M8.78 6.85A.5 .5 0 0 1 9.24 6.85L9.34 6.91Q9.44 7.03 9.46 7.09L9.86 8.15L10.92 8.54C10.95 8.56 11.09 8.62 11.16 8.77L11.21 8.88L11.21 9.12L11.1 9.33C11.03 9.41 10.94 9.44 10.92 9.45L9.86 9.85L9.46 10.91Q9.46 10.96 9.34 11.09L9.13 11.2A.5 .5 0 0 1 8.78 11.15C8.63 11.08 8.58 10.95 8.55 10.91L8.16 9.85L7.1 9.45A.5 .5 0 0 1 6.85 9.23A.5 .5 0 0 1 6.85 8.77C6.93 8.62 7.06 8.57 7.1 8.54L8.16 8.15L8.55 7.09C8.57 7.06 8.63 6.92 8.78 6.85M3.73 1.05A.6 .6 0 0 1 4.29 1.05L4.35 1.08A1 1 0 0 1 4.55 1.35L5.13 2.87L6.65 3.45C6.72 3.48 6.88 3.55 6.96 3.72L6.99 3.79A.6 .6 0 0 1 6.99 4.21L6.93 4.34A1 1 0 0 1 6.65 4.54Q6.52 4.62 6.34 4.67L5.14 5.12L4.56 6.65A1 1 0 0 1 4.35 6.92L4.22 6.98A.6 .6 0 0 1 3.72 6.95A.6 .6 0 0 1 3.46 6.65L2.89 5.13L1.36 4.55A.6 .6 0 0 1 1.06 4.28A.6 .6 0 0 1 1.06 3.72A.6 .6 0 0 1 1.36 3.45L2.88 2.88L3.46 1.35C3.49 1.28 3.56 1.13 3.73 1.05"/></svg>
